img/subtract-3.svg

<svg fill="none" height="24" viewBox="0 0 32 24" width="32" xmlns="http://www.w3.org/2000/svg"><path clip-rule="evenodd" d="m28.4633 1.50981c1.3785.368 2.4539 1.44543 2.8266 2.82135.975 3.92536.9115 11.34674.0205 15.33344-.3687 1.3759-1.4481 2.4492-2.8266 2.8213-3.8916.9609-21.32225.8424-24.98862 0-1.37847-.368-2.4538-1.4454-2.826584-2.8213-.919664-3.7414-.856168-11.65342-.020482-15.31299.368686-1.37592 1.448116-2.44926 2.826586-2.82135 5.20255-1.083566 23.137-.733964 24.9886-.02045zm-15.5668 5.70446 8.3568 4.78403-8.3568 4.784z" fill="#fff" fill-rule="evenodd"/></svg>

<svg width="32" height="24" viewBox="0 0 32 24" fill="none" xmlns="http://www.w3.org/2000/svg">
<path fill-rule="evenodd" clip-rule="evenodd" d="M28.4633 1.50981C29.8418 1.87781 30.9172 2.95524 31.2899 4.33116C32.2649 8.25652 32.2014 15.6779 31.3104 19.6646C30.9417 21.0405 29.8623 22.1138 28.4838 22.4859C24.5922 23.4468 7.16155 23.3283 3.49518 22.4859C2.11671 22.1179 1.04138 21.0405 0.668596 19.6646C-0.251068 15.9232 -0.187572 8.01118 0.648114 4.35161C1.0168 2.97569 2.09623 1.90235 3.4747 1.53026C8.67725 0.446694 26.6117 0.796296 28.4633 1.50981ZM12.8965 7.21427L21.2533 11.9983L12.8965 16.7823V7.21427Z" fill="white"/>
</svg>
